src/main/resources/icons/AllIcons/actions/gc.svg

<!-- Copyright 2000-2021 JetBrains s.r.o. Use of this source code is governed by the Apache 2.0 license that can be found in the LICENSE file. -->
<svg xmlns="http://www.w3.org/2000/svg" width="16" height="16" viewBox="0 0 16 16">
  <path fill="#6E6E6E" d="M6,2 L6,1 L10,1 L10,2 L13,2 L13,4 L3,4 L3,2 L6,2 Z M4,12.7142858 L4,5 L12,5 L12,12.7142858 C12,13.4214286 11.4,14 10.6666667,14 L5.33333333,14 C4.6,14 4,13.4214286 4,12.7142858 Z"/>
</svg>

<svg xmlns="http://www.w3.org/2000/svg" width="16" height="16" viewBox="0 0 16 16"><rect id="frame" width="16" height="16" fill="none"/><path fill="#6E6E6E" d="M6 2V1h4v1h3v2H3V2h3zM4 12.714V5h8v7.714c0 .707-.6 1.286-1.333 1.286H5.333C4.6 14 4 13.421 4 12.714z"/></svg>
